client/src/assets/logo/logo-full.svg

<svg width="143" height="32" viewBox="0 0 143 32" fill="none" xmlns="http://www.w3.org/2000/svg">
<path d="M15.258 26.865C15.2724 27.4021 15.1797 27.9367 14.9851 28.4376C14.7906 28.9384 14.4982 29.3955 14.125 29.782C13.752 30.1668 13.3057 30.4728 12.8124 30.682C12.3191 30.8913 11.7888 30.9994 11.253 31C10.717 31.0002 10.1865 30.8924 9.69305 30.6832C9.19963 30.4739 8.75339 30.1674 8.38095 29.782C8.00705 29.396 7.71419 28.939 7.51961 28.438C7.32502 27.9371 7.23266 27.4022 7.24796 26.865C7.25696 26.167 7.44796 25.483 7.80496 24.884C8.16096 24.284 8.66796 23.79 9.27496 23.451C9.25096 23.56 9.36496 23.396 9.27496 23.451L11.135 21.799C12.6094 20.2298 13.4329 18.1592 13.439 16.006C13.439 13.08 11.728 10.105 9.26896 8.549C9.36296 8.604 9.23296 8.455 9.26896 8.549C8.66165 8.20902 8.1549 7.71469 7.79996 7.116C7.44379 6.5163 7.25169 5.83344 7.24296 5.136C7.22831 4.59872 7.32097 4.06391 7.51552 3.56287C7.71006 3.06183 8.00258 2.60462 8.37596 2.218C8.74876 1.83334 9.19493 1.52735 9.68806 1.31815C10.1812 1.10894 10.7113 1.00076 11.247 1C11.7829 0.999714 12.3135 1.10742 12.8069 1.31668C13.3004 1.52595 13.7466 1.83249 14.119 2.218C14.493 2.60395 14.786 3.06089 14.9805 3.56188C15.1751 4.06288 15.2674 4.59777 15.252 5.135C15.2624 7.30708 16.1019 9.3932 17.599 10.967L18.416 11.767C18.742 12.052 19.084 12.318 19.44 12.565C20.061 12.895 20.582 13.391 20.944 13.996C21.215 14.4489 21.3912 14.9521 21.4622 15.4751C21.5331 15.9982 21.4972 16.5301 21.3566 17.0389C21.216 17.5476 20.9736 18.0225 20.6442 18.4349C20.3147 18.8473 19.9051 19.1885 19.44 19.438C19.473 19.371 19.377 19.474 19.44 19.438C18.1838 20.2321 17.1447 21.3258 16.416 22.621C15.6855 23.9184 15.2876 25.3764 15.258 26.865V26.865ZM19.741 5.123C19.741 5.919 19.976 6.698 20.417 7.36C20.8564 8.02107 21.4821 8.53685 22.215 8.842C22.9471 9.14685 23.7534 9.22661 24.531 9.07112C25.3087 8.91563 26.0224 8.53193 26.581 7.969C27.1413 7.40452 27.5226 6.68728 27.6771 5.9071C27.8317 5.12692 27.7527 4.31848 27.45 3.583C27.1472 2.84836 26.6336 2.2199 25.974 1.777C25.2038 1.26028 24.2779 1.02768 23.355 1.11909C22.4321 1.2105 21.5698 1.62024 20.916 2.278C20.164 3.034 19.7416 4.05673 19.741 5.123V5.123ZM23.748 22.84C22.956 22.84 22.181 23.076 21.522 23.518C20.8623 23.9609 20.3487 24.5894 20.046 25.324C19.743 26.0596 19.6639 26.8683 19.8184 27.6486C19.973 28.429 20.3545 29.1464 20.915 29.711C21.4735 30.2739 22.1872 30.6576 22.9649 30.8131C23.7425 30.9686 24.5488 30.8888 25.281 30.584C26.0144 30.2785 26.6405 29.762 27.08 29.1C27.5947 28.3249 27.8261 27.3959 27.735 26.47C27.6439 25.544 27.2359 24.6779 26.58 24.018C26.2088 23.6446 25.7676 23.3482 25.2816 23.1457C24.7956 22.9432 24.2744 22.8386 23.748 22.838V22.84ZM34 15.994C34 15.198 33.765 14.42 33.325 13.758C32.8857 13.0966 32.2599 12.5804 31.527 12.275C30.7947 11.9699 29.9882 11.8901 29.2103 12.0456C28.4325 12.2011 27.7186 12.5849 27.16 13.148C26.5995 13.7126 26.218 14.43 26.0634 15.2104C25.9089 15.9907 25.988 16.7994 26.291 17.535C26.5937 18.2696 27.1073 18.8981 27.767 19.341C28.4252 19.783 29.2001 20.019 29.993 20.019C30.5194 20.0182 31.0405 19.9136 31.5265 19.7111C32.0124 19.5086 32.4537 19.2123 32.825 18.839C33.5769 18.0826 33.9993 17.0596 34 15.993V15.994Z" fill="#0069FF"/>
<path d="M5.00699 11.969C4.21399 11.969 3.43999 12.205 2.78099 12.647C2.12121 13.0902 1.60759 13.719 1.30499 14.454C1.00226 15.1895 0.923231 15.9979 1.07781 16.7781C1.23239 17.5583 1.6137 18.2755 2.17399 18.84C2.73339 19.4017 3.44702 19.7845 4.22434 19.9399C5.00166 20.0953 5.80763 20.0164 6.53999 19.713C7.2729 19.4075 7.89866 18.8914 8.338 18.23C8.85242 17.4552 9.08361 16.5265 8.99251 15.601C8.90141 14.6754 8.49361 13.8097 7.83799 13.15C7.4669 12.7767 7.02585 12.4803 6.54007 12.2776C6.0543 12.075 5.53334 11.9701 5.00699 11.969V11.969Z" fill="#0069FF"/>
<path d="M58.664 11.136L56.624 18.528L54.44 11.136H51.512L49.328 18.504L47.288 11.136H44L47.816 23.136H50.768L52.976 15.864L55.184 23.136H58.136L61.952 11.136H58.664V11.136ZM68.864 23.472C72.392 23.472 75.224 20.712 75.224 17.136C75.224 13.56 72.392 10.8 68.864 10.8C65.336 10.8 62.528 13.56 62.528 17.136C62.528 20.712 65.336 23.472 68.864 23.472ZM68.864 20.448C67.04 20.448 65.624 19.08 65.624 17.136C65.624 15.192 67.04 13.824 68.864 13.824C70.712 13.824 72.128 15.192 72.128 17.136C72.128 19.08 70.712 20.448 68.864 20.448ZM80.498 13.2V11.136H77.402V23.136H80.498V17.4C80.498 14.88 82.538 14.16 84.146 14.352V10.896C82.634 10.896 81.122 11.568 80.498 13.2ZM97.02 23.136L92.053 17.064L96.877 11.136H93.18L89.052 16.416V6.336H85.956V23.136H89.052V17.688L93.42 23.136H97.02V23.136ZM105.022 6C101.206 6 99.382 7.704 99.382 11.016V11.136H97.654V14.112H99.382V23.136H102.478V14.112H104.47V11.136H102.478V11.016C102.478 9.384 103.414 8.712 105.022 8.712C105.334 8.712 105.67 8.712 106.006 8.736V23.136H109.102V6.504C107.782 6.24 106.534 6 105.022 6ZM117.637 23.472C121.165 23.472 123.997 20.712 123.997 17.136C123.997 13.56 121.165 10.8 117.637 10.8C114.109 10.8 111.301 13.56 111.301 17.136C111.301 20.712 114.109 23.472 117.637 23.472ZM117.637 20.448C115.813 20.448 114.397 19.08 114.397 17.136C114.397 15.192 115.813 13.824 117.637 13.824C119.485 13.824 120.901 15.192 120.901 17.136C120.901 19.08 119.485 20.448 117.637 20.448ZM139.219 11.136L137.179 18.528L134.995 11.136H132.067L129.883 18.504L127.843 11.136H124.555L128.371 23.136H131.323L133.531 15.864L135.739 23.136H138.691L142.507 11.136H139.219V11.136Z" fill="#031B4E"/>
</svg>

<svg fill="none" viewBox="0 0 143 32" xmlns="http://www.w3.org/2000/svg">
  <path fill="#5850EC" d="M15.258 26.865a4.043 4.043 0 01-1.133 2.917A4.006 4.006 0 0111.253 31a3.992 3.992 0 01-2.872-1.218 4.028 4.028 0 01-1.133-2.917c.009-.698.2-1.382.557-1.981.356-.6.863-1.094 1.47-1.433-.024.109.09-.055 0 0l1.86-1.652a8.495 8.495 0 002.304-5.793c0-2.926-1.711-5.901-4.17-7.457.094.055-.036-.094 0 0A3.952 3.952 0 017.8 7.116a3.975 3.975 0 01-.557-1.98 4.042 4.042 0 011.133-2.918A4.006 4.006 0 0111.247 1a3.99 3.99 0 012.872 1.218 4.025 4.025 0 011.133 2.917 8.521 8.521 0 002.347 5.832l.817.8c.326.285.668.551 1.024.798.621.33 1.142.826 1.504 1.431a3.902 3.902 0 01-1.504 5.442c.033-.067-.063.036 0 0a8.968 8.968 0 00-3.024 3.183 9.016 9.016 0 00-1.158 4.244zM19.741 5.123c0 .796.235 1.575.676 2.237a4.01 4.01 0 001.798 1.482 3.99 3.99 0 004.366-.873 4.042 4.042 0 00.869-4.386 4.02 4.02 0 00-1.476-1.806 3.994 3.994 0 00-5.058.501 4.038 4.038 0 00-1.175 2.845zM23.748 22.84c-.792 0-1.567.236-2.226.678a4.021 4.021 0 00-1.476 1.806 4.042 4.042 0 00.869 4.387 3.99 3.99 0 004.366.873A4.01 4.01 0 0027.08 29.1a4.039 4.039 0 00-.5-5.082 4 4 0 00-2.832-1.18zM34 15.994c0-.796-.235-1.574-.675-2.236a4.01 4.01 0 00-1.798-1.483 3.99 3.99 0 00-4.367.873 4.042 4.042 0 00-.869 4.387 4.02 4.02 0 001.476 1.806 3.993 3.993 0 002.226.678 4.003 4.003 0 002.832-1.18A4.04 4.04 0 0034 15.993z"/>
  <path fill="#5850EC" d="M5.007 11.969c-.793 0-1.567.236-2.226.678a4.021 4.021 0 00-1.476 1.807 4.042 4.042 0 00.869 4.386 4.001 4.001 0 004.366.873 4.011 4.011 0 001.798-1.483 4.038 4.038 0 00-.5-5.08 4.004 4.004 0 00-2.831-1.181z"/>
  <path fill="#252F3F" d="M58.664 11.136l-2.04 7.392-2.184-7.392h-2.928l-2.184 7.368-2.04-7.368H44l3.816 12h2.952l2.208-7.272 2.208 7.272h2.952l3.816-12h-3.288zM68.864 23.472c3.528 0 6.36-2.76 6.36-6.336 0-3.576-2.832-6.336-6.36-6.336-3.528 0-6.336 2.76-6.336 6.336 0 3.576 2.808 6.336 6.336 6.336zm0-3.024c-1.824 0-3.24-1.368-3.24-3.312 0-1.944 1.416-3.312 3.24-3.312 1.848 0 3.264 1.368 3.264 3.312 0 1.944-1.416 3.312-3.264 3.312zM80.498 13.2v-2.064h-3.096v12h3.096V17.4c0-2.52 2.04-3.24 3.648-3.048v-3.456c-1.512 0-3.024.672-3.648 2.304zM97.02 23.136l-4.967-6.072 4.824-5.928H93.18l-4.128 5.28V6.336h-3.096v16.8h3.096v-5.448l4.368 5.448h3.6zM105.022 6c-3.816 0-5.64 1.704-5.64 5.016v.12h-1.728v2.976h1.728v9.024h3.096v-9.024h1.992v-2.976h-1.992v-.12c0-1.632.936-2.304 2.544-2.304.312 0 .648 0 .984.024v14.4h3.096V6.504c-1.32-.264-2.568-.504-4.08-.504zM117.637 23.472c3.528 0 6.36-2.76 6.36-6.336 0-3.576-2.832-6.336-6.36-6.336-3.528 0-6.336 2.76-6.336 6.336 0 3.576 2.808 6.336 6.336 6.336zm0-3.024c-1.824 0-3.24-1.368-3.24-3.312 0-1.944 1.416-3.312 3.24-3.312 1.848 0 3.264 1.368 3.264 3.312 0 1.944-1.416 3.312-3.264 3.312zM139.219 11.136l-2.04 7.392-2.184-7.392h-2.928l-2.184 7.368-2.04-7.368h-3.288l3.816 12h2.952l2.208-7.272 2.208 7.272h2.952l3.816-12h-3.288z"/>
</svg>
